X:344
T: Es wollt ein Leineweber wandern (4-43), S. 59
N: P0604
O: Lothringen
S: PINCK, Louis: Verklingende Weisen Bd 4, Kassel 1939]
R: Arbeitslied]
M: 4/4
L: 1/8
K: G
D2 | G2G2AABA | G2FED2
E2 | D2G2AAF2 | G4z2
GG | AAG2A2Bc | d2A2z2
d2 | cBAGF2F2 | A2D2z2
G2 | D2G2AGF2 | G4z2
G2 | D2G2AGF2 | G4z2

